public/images/logos/500px.svg

<?xml version="1.0" encoding="utf-8"?>
<!-- Generator: Adobe Illustrator 23.0.6, SVG Export Plug-In . SVG Version: 6.00 Build 0)  -->
<svg version="1.1" id="logo_svg" xmlns="http://www.w3.org/2000/svg" xmlns:xlink="http://www.w3.org/1999/xlink" x="0px" y="0px"
	 viewBox="0 0 300 120" style="enable-background:new 0 0 300 120;" xml:space="preserve">
<title>500px</title>
<path d="M93.1,22.5c-20.7,0-37.5,16.8-37.5,37.5c0,20.7,16.8,37.5,37.5,37.5s37.5-16.8,37.5-37.5c0,0,0,0,0,0l0,0
	C130.5,39.4,113.8,22.7,93.1,22.5z M93.1,89.6c-16.3,0.1-29.5-13-29.6-29.3c-0.1-16.3,13-29.5,29.3-29.6c16.3-0.1,29.5,13,29.6,29.2
	l0,0C122.4,76.2,109.4,89.4,93.1,89.6z M173.7,22.5c-20.7,0-37.5,16.8-37.5,37.5c0,20.7,16.8,37.5,37.5,37.5s37.5-16.8,37.5-37.5
	l0,0C211.2,39.3,194.5,22.5,173.7,22.5L173.7,22.5z M173.7,89.6c-16.3,0.1-29.5-13-29.6-29.3c-0.1-16.3,13-29.5,29.3-29.6
	c16.3-0.1,29.5,13,29.6,29.2l0,0c0.3,16.1-12.6,29.4-28.6,29.6c0,0,0,0,0,0H173.7z M28.6,45c-7.1-1.2-14.3,0.8-19.9,5.3V30.4h33.8
	c1.1,0,1.9-0.4,1.9-3.8s-1.5-3.4-2.3-3.4H5c-1.9,0-3.4,1.5-3.4,3.4c0,0,0,0,0,0l0,0v33c0,1.9,1.1,2.3,3,2.6c1.2,0.5,2.5,0.2,3.4-0.8
	l0,0c4.3-6.1,11.4-9.5,18.8-9c8.7,1.1,15.6,7.8,16.9,16.5c1.2,10.3-6.2,19.7-16.5,21h-2.3C17,89.9,10,85,7.3,77.6
	c-0.4-1.1-1.1-1.9-4.1-0.8s-3.4,1.9-3,3c5.1,13.6,20.1,20.6,33.8,15.8c13.6-5.1,20.6-20.1,15.8-33.7C46.3,52.8,38.2,46.3,28.6,45z
	 M236.8,22.9c-10.3,1.2-18,9.9-18,20.3v33.4c0,1.9,1.5,2.3,3.8,2.3s3.8-0.4,3.8-2.3V43.1c-0.1-6.4,4.5-11.9,10.9-12.8
	c3.4-0.3,6.8,0.7,9.4,3c2.6,2.3,4.1,5.5,4.1,9c-0.3,2.6-1.2,5-2.6,7.1c-2.4,3.3-6.4,5.2-10.5,4.9l0,0c-1.5,0-2.6,0-3,3.4
	c0,2.3,0,3.4,1.9,3.8c3.8,0.4,7.6-0.4,10.9-2.3c6.1-3.1,10.1-9,10.9-15.8c0.9-10.7-7-20.1-17.7-21c0,0,0,0,0,0h-0.3
	C239,22.8,237.9,22.9,236.8,22.9z M285.9,42.4l13.5-13.5c0.4-0.4,1.5-1.5-0.8-4.1c-0.6-0.8-1.6-1.4-2.6-1.5l0,0
	c-0.6,0-1.1,0.3-1.5,0.8L281,37.5l-13.5-13.9c-1.1-1.1-2.3-0.8-4.1,0.8s-1.9,3-0.8,4.1L276.1,42l-13.6,13.9l0,0
	c-0.4,0.4-0.6,0.9-0.8,1.5c0,1.1,0.6,2.1,1.5,2.6c0.7,0.7,1.6,1.2,2.6,1.5l0,0c0.7-0.1,1.3-0.3,1.9-0.8l13.5-13.5l13.5,13.5
	c0.4,0.5,0.9,0.7,1.5,0.8l0,0c1-0.1,2-0.7,2.6-1.5c1.1-1.5,1.5-3,0.4-3.8L285.9,42.4z"/>
</svg>

<?xml version="1.0" encoding="UTF-8" standalone="no"?>
<!-- Generator: Adobe Illustrator 23.0.6, SVG Export Plug-In . SVG Version: 6.00 Build 0)  -->

<svg version="1.1" id="logo_svg" x="0px" y="0px" viewBox="0 0 32 32" xml:space="preserve" width="32" height="32" xmlns="http://www.w3.org/2000/svg" xmlns:svg="http://www.w3.org/2000/svg" xmlns:rdf="http://www.w3.org/1999/02/22-rdf-syntax-ns#" xmlns:cc="http://creativecommons.org/ns#" xmlns:dc="http://purl.org/dc/elements/1.1/"><defs id="defs1" />
<title id="title1">500px</title>
<g id="g10" transform="matrix(0.15156564,0,0,0.15156564,-0.01066356,6.9060616)"><path d="M 28.6,45 C 21.5,43.8 14.3,45.8 8.7,50.3 V 30.4 h 33.8 c 1.1,0 1.9,-0.4 1.9,-3.8 0,-3.4 -1.5,-3.4 -2.3,-3.4 H 5 c -1.9,0 -3.4,1.5 -3.4,3.4 0,0 0,0 0,0 v 0 33 c 0,1.9 1.1,2.3 3,2.6 1.2,0.5 2.5,0.2 3.4,-0.8 v 0 c 4.3,-6.1 11.4,-9.5 18.8,-9 8.7,1.1 15.6,7.8 16.9,16.5 1.2,10.3 -6.2,19.7 -16.5,21 H 24.9 C 17,89.9 10,85 7.3,77.6 6.9,76.5 6.2,75.7 3.2,76.8 c -3,1.1 -3.4,1.9 -3,3 C 5.3,93.4 20.3,100.4 34,95.6 47.6,90.5 54.6,75.5 49.8,61.9 46.3,52.8 38.2,46.3 28.6,45 Z" id="path8" /><path d="m 173.7,22.5 c -20.7,0 -37.5,16.8 -37.5,37.5 0,20.7 16.8,37.5 37.5,37.5 20.7,0 37.5,-16.8 37.5,-37.5 v 0 c 0,-20.7 -16.7,-37.5 -37.5,-37.5 z m 0,67.1 c -16.3,0.1 -29.5,-13 -29.6,-29.3 -0.1,-16.3 13,-29.5 29.3,-29.6 16.3,-0.1 29.5,13 29.6,29.2 v 0 c 0.3,16.1 -12.6,29.4 -28.6,29.6 0,0 0,0 0,0 h -0.7 z" id="path7" /><path d="m 93.1,22.5 c -20.7,0 -37.5,16.8 -37.5,37.5 0,20.7 16.8,37.5 37.5,37.5 20.7,0 37.5,-16.8 37.5,-37.5 0,0 0,0 0,0 v 0 C 130.5,39.4 113.8,22.7 93.1,22.5 Z m 0,67.1 C 76.8,89.7 63.6,76.6 63.5,60.3 63.4,44 76.5,30.8 92.8,30.7 c 16.3,-0.1 29.5,13 29.6,29.2 v 0 c 0,16.3 -13,29.5 -29.3,29.7 z" id="path1" /></g>
<metadata id="metadata10"><rdf:RDF><cc:Work rdf:about=""><dc:title>500px</dc:title></cc:Work></rdf:RDF></metadata></svg>
